rospo-newyear-dark/symbolic/devices/audio-headset-symbolic.svg

<svg height="16" width="16" xmlns="http://www.w3.org/2000/svg"><path d="m8 0c-3.32 0-6 2.68-6 6v4s0 2 2 2h2v-5h-2v-1c0-2.22 1.78-4 4-4s4 1.78 4 4v1h-2v5h3c0 1.66-1.34 3-3 3v-1h-4v2h4c2.22 0 4-1.78 4-4v-6c0-3.32-2.68-6-6-6z" fill="#d3dae3"/></svg>

<svg xmlns="http://www.w3.org/2000/svg" width="16" height="16" version="1.1">
 <path style="fill:#d3dae3" d="M 8,0 C 4.68,0 2,2.68 2,6 V 10 C 2,10 2,12 4,12 H 6 V 7 H 4 V 6 C 4,3.78 5.78,2 8,2 10.22,2 12,3.78 12,6 V 7 H 10 V 12 H 13 C 13,13.66 11.66,15 10,15 V 14 H 6 V 16 H 10 C 12.22,16 14,14.22 14,12 V 6 C 14,2.68 11.32,0 8,0 Z"/>
</svg>
